static/assets/images/logos/monochrome/ringler.svg

<svg width="146" height="32" viewBox="0 0 146 32" fill="none" xmlns="http://www.w3.org/2000/svg">
<path d="M96.6102 10.5628C98.0202 10.0968 99.5832 10.1908 100.978 10.6678C101.62 10.9098 102.196 11.2868 102.736 11.7038L102.732 11.8159L102.887 11.7619C102.637 11.9899 102.411 12.2419 102.21 12.5119L102.16 12.4958L102.074 12.6758C101.9 12.8637 101.736 13.0606 101.582 13.2658C101.444 13.1558 101.309 13.0458 101.169 12.9438L101.185 12.9128C100.891 12.7548 100.612 12.5728 100.32 12.4158C99.2672 11.9928 98.0702 11.9159 96.9982 12.3099L96.9722 12.4139L96.8202 12.3888C96.5702 12.5778 96.3132 12.7538 96.0482 12.9188L96.0712 13.0128L95.9752 12.9759L95.8052 13.1458L95.8412 13.2358L95.7512 13.2259C95.6312 13.4009 95.4982 13.5659 95.3682 13.7329C94.4482 15.1769 94.4982 17.1168 95.3782 18.5688L95.4102 18.5708C95.7492 19.0588 96.2182 19.4308 96.7052 19.7628L96.8622 19.7248L96.8722 19.8389C97.9212 20.2189 99.0982 20.2668 100.157 19.8988C100.565 19.7688 100.926 19.5338 101.312 19.3548C101.342 18.6148 101.32 17.8748 101.329 17.1348C100.365 17.1438 99.4012 17.1298 98.4392 17.1418C98.4477 16.5785 98.4457 16.0151 98.4332 15.4518C100.036 15.4558 101.639 15.4678 103.242 15.4448C103.215 17.0268 103.238 18.6089 103.23 20.1919C103.032 20.3299 102.842 20.4798 102.652 20.6268C102.451 20.7648 102.24 20.8878 102.02 20.9938L101.984 21.0958L101.774 21.0558L101.75 21.2158L101.537 21.1748L101.512 21.3299L101.351 21.3198C99.6182 22.1298 97.5142 22.1359 95.7732 21.3439C95.4519 21.1807 95.1406 20.9984 94.8412 20.7978L94.8582 20.7648C94.4162 20.4868 94.0702 20.0828 93.7512 19.6768C93.6412 19.5138 93.5272 19.3528 93.4112 19.1938L93.4392 19.0469L93.2772 19.0168L93.3162 18.8039L93.1612 18.7808L93.1742 18.6208C92.4982 17.1958 92.4872 15.4868 93.0122 14.0098C93.0992 13.8118 93.1822 13.6139 93.2672 13.4149C93.3792 13.2149 93.4972 13.0169 93.6202 12.8239C93.7002 12.7059 93.7802 12.5869 93.8632 12.4689C94.1522 12.1089 94.4702 11.7648 94.8532 11.4988L94.8562 11.4748L95.4342 11.0648L95.5212 11.0749C95.6792 10.9479 95.8442 10.8218 96.0542 10.7978L96.0712 10.7378C96.2502 10.6818 96.4292 10.6198 96.6102 10.5628V10.5628ZM77.1122 10.4629C77.7262 10.4669 78.3412 10.4628 78.9562 10.4658C79.0922 10.6658 79.2462 10.8538 79.3922 11.0478C79.5222 11.2118 79.6542 11.3748 79.7682 11.5518L79.7932 11.5539C79.9322 11.7469 80.0822 11.9308 80.2272 12.1188C80.3552 12.2828 80.4842 12.4458 80.5992 12.6188L80.6352 12.6258C80.7352 12.7718 80.8442 12.9139 80.9482 13.0599C80.9752 13.0949 81.0322 13.1598 81.0602 13.1958C81.1802 13.3478 81.3032 13.5008 81.4232 13.6558C81.5532 13.8238 81.6862 13.9918 81.7972 14.1748L81.8192 14.1569C81.9572 14.3529 82.1082 14.5398 82.2562 14.7298C82.3862 14.8958 82.5212 15.0598 82.6322 15.2428L82.6552 15.2228C82.7912 15.4228 82.9392 15.6118 83.0852 15.8018C83.2182 15.9648 83.3522 16.1288 83.4652 16.3068L83.4972 16.3058C83.5972 16.4538 83.7072 16.5958 83.8092 16.7438L83.9242 16.8789C84.0542 17.0369 84.1812 17.1988 84.2942 17.3688L84.3342 17.3789C84.4342 17.5289 84.5432 17.6738 84.6402 17.8268C84.7622 17.9668 84.8902 18.1039 85.0432 18.2189C85.0682 15.6309 85.0632 13.0408 85.0452 10.4538C85.6932 10.4738 86.3422 10.4658 86.9922 10.4598C86.9722 14.2238 86.9872 17.9888 86.9822 21.7518C86.4392 21.7488 85.8962 21.7488 85.3522 21.7518C85.2462 21.6168 85.1362 21.4848 85.0322 21.3488L84.9262 21.2088C84.7998 21.0595 84.6784 20.9061 84.5622 20.7488C84.4422 20.5888 84.3172 20.4328 84.1962 20.2738C84.0412 20.0738 83.8802 19.8779 83.7262 19.6789C83.5982 19.5089 83.4662 19.3429 83.3542 19.1639L83.3302 19.1818C83.1932 18.9858 83.0442 18.7988 82.8992 18.6098C82.7626 18.4468 82.6357 18.2758 82.5192 18.0978L82.4962 18.0998C82.3562 17.9078 82.2082 17.7218 82.0642 17.5358C81.9287 17.3747 81.8018 17.2065 81.6842 17.0319L81.6542 17.0268C81.5512 16.8798 81.4442 16.7368 81.3412 16.5918L81.2272 16.4588C81.0972 16.2988 80.9672 16.1388 80.8562 15.9668L80.8192 15.9569C80.7152 15.8089 80.6082 15.6648 80.5042 15.5198C80.3472 15.3218 80.1842 15.1258 80.0292 14.9258C79.8992 14.7558 79.7692 14.5918 79.6572 14.4128L79.6232 14.4258C79.5182 14.2658 79.4062 14.1088 79.3052 13.9458C79.2232 13.9192 79.1415 13.8916 79.0602 13.8628C79.0742 16.4928 79.0622 19.1208 79.0662 21.7498H77.1182C77.1152 17.9888 77.1252 14.2259 77.1122 10.4629V10.4629ZM122.252 10.4528C125.049 10.4778 127.845 10.4648 130.641 10.4598C130.621 11.0468 130.636 11.6329 130.63 12.2199H124.218C124.221 13.2049 124.221 14.1898 124.218 15.1738C126.118 15.1738 128.017 15.1738 129.915 15.1758C129.918 15.7608 129.907 16.3458 129.925 16.9338C128.019 16.9138 126.114 16.9468 124.208 16.9178C124.226 17.9478 124.228 18.9778 124.21 20.0068C126.384 19.9948 128.557 20.0068 130.73 20.0008C130.725 20.5828 130.728 21.1658 130.728 21.7498C127.906 21.7538 125.085 21.7428 122.264 21.7558C122.26 17.9888 122.281 14.2198 122.254 10.4528H122.252ZM53.8572 10.4629C55.5802 10.4669 57.3042 10.4629 59.0272 10.4629C59.5391 10.4667 60.0482 10.5387 60.5412 10.6768C60.7562 10.7508 60.9692 10.8338 61.1662 10.9508C61.2062 10.9458 61.2822 10.9348 61.3212 10.9308L61.3412 11.0848L61.5182 11.0648C61.9202 11.3648 62.3002 11.7019 62.5882 12.1149C62.6182 12.1749 62.6732 12.2928 62.7012 12.3528C62.9962 12.9462 63.1306 13.6066 63.0907 14.2681C63.0509 14.9296 62.8383 15.5692 62.4742 16.1229C62.2572 16.3829 62.0142 16.6228 61.7472 16.8328C61.3312 17.0908 60.8912 17.3168 60.4152 17.4468C60.5182 17.6628 60.6522 17.8629 60.7892 18.0599C60.9982 18.3299 61.1972 18.6068 61.3892 18.8898C61.5932 19.1628 61.7932 19.4399 61.9852 19.7199C62.1892 19.9959 62.3902 20.2699 62.5832 20.5529C62.7822 20.8289 62.9832 21.1029 63.1722 21.3869C63.2642 21.5089 63.3572 21.6298 63.4522 21.7498C62.6822 21.7498 61.9122 21.7478 61.1452 21.7518C61.0389 21.6121 60.9362 21.4697 60.8372 21.3249C60.7531 21.2128 60.6697 21.1001 60.5872 20.9868C60.502 20.8572 60.4207 20.7252 60.3432 20.5908H60.3062C60.1252 20.3248 59.9442 20.0578 59.7492 19.8008C59.6637 19.6703 59.5826 19.5369 59.5062 19.4009L59.4732 19.4058C59.3702 19.2578 59.2632 19.1119 59.1602 18.9639C59.0752 18.8339 58.9902 18.7039 58.9132 18.5739L58.8702 18.5708C58.7742 18.4178 58.6742 18.2678 58.5802 18.1128C58.4672 17.9978 58.3922 17.7828 58.1982 17.8078C57.4039 17.803 56.6095 17.8037 55.8152 17.8099C55.7952 19.1229 55.8342 20.4398 55.7932 21.7518C55.1492 21.7478 54.5052 21.7518 53.8632 21.7498C53.8592 17.9888 53.8702 14.2259 53.8572 10.4629V10.4629ZM55.8122 12.2448C55.8082 13.5218 55.8122 14.7998 55.8122 16.0778C56.8792 16.0698 57.9472 16.1008 59.0152 16.0628C59.5632 16.0578 60.0572 15.8109 60.5252 15.5529L60.4732 15.4888L60.6132 15.4619L60.6402 15.3218L60.7082 15.3738C61.2402 14.6058 61.2682 13.4928 60.5942 12.7988C60.4657 12.7048 60.34 12.6071 60.2172 12.5058L60.0592 12.5558L60.0642 12.4298C59.6842 12.3498 59.3072 12.2328 58.9142 12.2418C57.8802 12.2418 56.8462 12.2398 55.8122 12.2448V12.2448ZM68.8572 10.4598C69.5172 10.4698 70.1792 10.4628 70.8392 10.4658C70.8342 14.2258 70.8392 17.9888 70.8372 21.7498C70.1792 21.7498 69.5212 21.7478 68.8652 21.7518C68.8622 17.9888 68.8772 14.2238 68.8572 10.4598V10.4598ZM109.193 10.4629C109.853 10.4659 110.513 10.4659 111.175 10.4629C111.161 13.6349 111.175 16.8068 111.168 19.9778C113.158 19.9638 115.148 19.9778 117.138 19.9708C117.126 20.5638 117.133 21.1568 117.132 21.7498H109.2C109.196 17.9888 109.207 14.2259 109.194 10.4629H109.193ZM136.41 10.4658C138.124 10.4638 139.837 10.4659 141.55 10.4639C142.59 10.4599 143.64 10.7339 144.49 11.3458L144.465 11.3878C144.58 11.4478 144.682 11.5219 144.775 11.6149C144.845 11.6989 144.915 11.7838 144.991 11.8668C145.091 12.0238 145.189 12.1818 145.291 12.3398C145.736 13.2498 145.767 14.3218 145.487 15.2858C145.382 15.5128 145.275 15.7388 145.167 15.9648L145.126 15.9549C145.033 16.1169 144.916 16.2619 144.801 16.4069L144.686 16.5208C144.442 16.7388 144.184 16.9429 143.882 17.0729L143.844 17.1688C143.806 17.1658 143.727 17.1638 143.688 17.1608C143.472 17.2896 143.235 17.3808 142.988 17.4308C143.054 17.5748 143.123 17.7149 143.193 17.8589H143.245C143.424 18.1259 143.614 18.3868 143.797 18.6518C144.001 18.9248 144.202 19.2019 144.394 19.4839C144.596 19.7569 144.798 20.0329 144.99 20.3159C145.193 20.5889 145.392 20.8658 145.589 21.1458C145.732 21.3418 145.871 21.5409 145.999 21.7479C145.238 21.7449 144.476 21.7628 143.715 21.7418C143.57 21.5705 143.446 21.3825 143.345 21.1818L143.312 21.1909C143.209 21.0409 143.106 20.8938 143.007 20.7448C142.923 20.6278 142.841 20.5095 142.76 20.3898C142.556 20.1168 142.36 19.8398 142.17 19.5558L141.863 19.1478C141.796 19.0317 141.734 18.9129 141.676 18.7918L141.583 18.8498L141.608 18.7339C141.509 18.6164 141.414 18.4963 141.321 18.3738C141.196 18.1908 141.071 18.0088 140.955 17.8198C140.099 17.7898 139.24 17.8128 138.385 17.8068C138.382 19.1218 138.382 20.4368 138.385 21.7518C137.727 21.7478 137.07 21.7518 136.413 21.7498C136.41 17.9888 136.415 14.2268 136.41 10.4658V10.4658ZM138.38 12.2409C138.383 13.5209 138.386 14.8008 138.38 16.0828C139.357 16.0718 140.335 16.0868 141.314 16.0758C141.819 16.0718 142.334 15.9759 142.774 15.7189C142.812 15.7189 142.887 15.7229 142.924 15.7259L142.923 15.6458C143.079 15.5128 143.23 15.3719 143.376 15.2259C143.716 14.7109 143.708 14.0738 143.614 13.4858C143.523 13.3207 143.437 13.1526 143.356 12.9818L143.253 13.0018L143.286 12.9088L143.116 12.7378L143.022 12.7738L143.046 12.6688C142.619 12.4488 142.171 12.2448 141.68 12.2518C140.58 12.2288 139.48 12.2508 138.38 12.2418V12.2409Z" fill="black"/>
<path d="M17.2751 13.8448C18.5111 13.8668 19.7451 13.9248 20.9791 14.0038C22.3771 14.1178 23.8121 14.5218 24.9061 15.4378C25.4881 15.9218 25.9321 16.7278 25.6421 17.4928C25.2861 18.3748 24.3551 18.8328 23.4961 19.0848C21.7121 19.6248 19.8491 19.2078 18.0321 19.1248C15.1521 18.9238 12.2541 18.8868 9.37411 19.1248C8.48711 19.2088 7.59611 19.2688 6.71411 19.4048C6.55911 19.4218 5.21111 19.6498 4.64911 19.7648C3.69311 19.9708 2.74111 20.2408 1.86211 20.6788C1.33411 20.9568 0.786108 21.3168 0.549108 21.8928L0.502108 22.0448C0.402108 22.8898 1.17011 23.5338 1.79811 23.9968C2.95811 24.7888 4.28311 25.2868 5.59011 25.7808L5.78411 25.8668C5.71311 26.2008 5.65911 26.5378 5.62111 26.8768C4.58111 26.3398 3.55811 25.7528 2.64611 25.0128C1.73811 24.3098 0.880108 23.4578 0.399108 22.4058L0.389108 22.4358L0.252108 22.1198C0.0662643 21.649 -0.0183845 21.1444 0.00366872 20.6387C0.0257219 20.133 0.153983 19.6377 0.380108 19.1848C0.807108 18.3298 1.51011 17.6488 2.27611 17.0968C2.40811 17.0048 2.74111 16.7658 2.74111 16.7658C5.37911 15.2028 8.41911 14.4978 11.4291 14.1198C12.6641 14.0058 13.8991 13.8898 15.1391 13.8468C13.8991 13.8898 12.6641 14.0048 11.4291 14.1168C13.7571 13.7968 16.1151 13.7768 18.4591 13.8088C19.2981 13.8958 20.1421 13.9008 20.9791 14.0028C19.7458 13.9217 18.5108 13.869 17.2751 13.8448V13.8448Z" fill="black"/>
<path d="M38.7121 15.4259C38.4281 18.3959 36.7451 21.0479 34.6671 23.1179C31.6471 26.1009 27.8171 28.1409 23.8471 29.5709C20.1971 30.8769 16.3651 31.6529 12.5031 31.9809C10.5911 32.1069 8.56309 31.6009 7.11309 30.3059C6.14709 29.4549 5.52009 28.1789 5.62109 26.8779C5.65309 26.5379 5.71909 26.2019 5.78409 25.8669L5.59009 25.7809L5.79609 25.8239C6.23049 24.7188 6.99349 23.7736 7.98209 23.1159C8.22909 22.9359 8.46709 22.8179 8.60409 22.7159C9.38409 22.3429 10.2021 22.0359 11.0591 21.8959C11.2211 21.8659 11.3861 21.8459 11.5511 21.8259C16.5341 21.3889 21.5011 20.5449 26.2811 19.0529C28.7611 18.2669 31.2051 17.3129 33.4411 15.9749C34.8191 15.1269 36.1781 14.1279 37.0411 12.7319C37.6761 11.7209 37.8171 10.4119 37.2771 9.31785C38.3641 11.1449 38.9421 13.2999 38.7121 15.4259ZM9.90009 0.175855C15.6701 -0.306145 21.5871 0.159855 27.0781 2.07186C29.4121 2.88586 31.6551 3.99185 33.6401 5.47185C34.8307 6.37119 35.8981 7.42283 36.8151 8.59985C34.9041 6.67485 32.2771 5.75385 29.7091 5.07785C25.3061 3.98185 20.7431 3.67585 16.2171 3.71685C14.1737 3.73352 12.132 3.83527 10.0971 4.02185C9.44009 4.05185 8.75509 3.80985 8.31209 3.31585C8.09448 3.0874 7.94458 2.80302 7.87908 2.49439C7.81357 2.18576 7.83504 1.865 7.94109 1.56786C8.22409 0.753855 9.06009 0.236854 9.90009 0.177854V0.175855Z" fill="black"/>
<path d="M5.58322 6.16594C8.57922 5.01894 11.8232 4.72794 15.0092 4.71094C19.2752 4.75594 23.5212 5.39594 27.6472 6.45694C28.8072 6.76694 30.0042 7.03094 31.0472 7.64894C32.1672 8.29894 33.2072 9.25894 33.5812 10.5319C33.8402 11.4059 33.6212 12.3519 33.0042 13.0239C32.3342 13.7439 31.3702 14.1109 30.4142 14.2559C29.3742 14.3969 28.3152 14.3249 27.3042 14.0419C22.2742 12.6069 17.1382 11.4919 11.9232 11.0039C9.60522 10.8099 7.26322 10.7139 4.95122 11.0089C3.77722 11.1819 2.55822 11.4219 1.57022 12.1139C0.927224 12.5489 0.558224 13.3489 0.722224 14.1299C0.258224 12.6369 0.314224 10.9399 1.12522 9.57694C2.09522 7.90894 3.82522 6.85294 5.58322 6.16594" fill="black"/>
</svg>

<svg clip-rule="evenodd" fill-rule="evenodd" stroke-linejoin="round" stroke-miterlimit="2" viewBox="0 0 1000 220" xmlns="http://www.w3.org/2000/svg"><g fill-rule="nonzero" transform="matrix(6.84937 0 0 6.84937 -.001672 .003344)"><path d="m96.61 10.563c1.41-.466 2.973-.372 4.368.105.642.242 1.218.619 1.758 1.036l-.004.112.155-.054c-.25.228-.476.48-.677.75l-.05-.016-.086.18c-.174.188-.338.385-.492.59-.138-.11-.273-.22-.413-.322l.016-.031c-.294-.158-.573-.34-.865-.497-1.053-.423-2.25-.5-3.322-.106l-.026.104-.152-.025c-.25.189-.507.365-.772.53l.023.094-.096-.037-.17.17.036.09-.09-.01c-.12.175-.253.34-.383.507-.92 1.444-.87 3.384.01 4.836l.032.002c.339.488.808.86 1.295 1.192l.157-.038.01.114c1.049.38 2.226.428 3.285.06.408-.13.769-.365 1.155-.544.03-.74.008-1.48.017-2.22-.964.009-1.928-.005-2.89.007.009-.564.007-1.127-.006-1.69 1.603.004 3.206.016 4.809-.007-.027 1.582-.004 3.164-.012 4.747-.198.138-.388.288-.578.435-.201.138-.412.261-.632.367l-.036.102-.21-.04-.024.16-.213-.041-.025.155-.161-.01c-1.733.81-3.837.816-5.578.024-.321-.163-.632-.346-.932-.546l.017-.033c-.442-.278-.788-.682-1.107-1.088-.11-.163-.224-.324-.34-.483l.028-.147-.162-.03.039-.213-.155-.023.013-.16c-.676-1.425-.687-3.134-.162-4.611.087-.198.17-.396.255-.595.112-.2.23-.398.353-.591.08-.118.16-.237.243-.355.289-.36.607-.704.99-.97l.003-.024.578-.41.087.01c.158-.127.323-.253.533-.277l.017-.06c.179-.056.358-.118.539-.175zm-19.498-.1c.614.004 1.229 0 1.844.003.136.2.29.388.436.582.13.164.262.327.376.504l.025.002c.139.193.289.377.434.565.128.164.257.327.372.5l.036.007c.1.146.209.288.313.434.027.035.084.1.112.136.12.152.243.305.363.46.13.168.263.336.374.519l.022-.018c.138.196.289.383.437.573.13.166.265.33.376.513l.023-.02c.136.2.284.389.43.579.133.163.267.327.38.505l.032-.001c.1.148.21.29.312.438l.115.135c.13.158.257.32.37.49l.04.01c.1.15.209.295.306.448.122.14.25.277.403.392.025-2.588.02-5.178.002-7.765.648.02 1.297.012 1.947.006-.02 3.764-.005 7.529-.01 11.292-.543-.003-1.086-.003-1.63 0-.106-.135-.216-.267-.32-.403l-.106-.14c-.126-.149-.248-.303-.364-.46-.12-.16-.245-.316-.366-.475-.155-.2-.316-.396-.47-.595-.128-.17-.26-.336-.372-.515l-.024.018c-.137-.196-.286-.383-.431-.572-.136-.163-.263-.334-.38-.512l-.023.002c-.14-.192-.288-.378-.432-.564-.135-.161-.262-.33-.38-.504l-.03-.005c-.103-.147-.21-.29-.313-.435l-.114-.133c-.13-.16-.26-.32-.371-.492l-.037-.01c-.104-.148-.211-.292-.315-.437-.157-.198-.32-.394-.475-.594-.13-.17-.26-.334-.372-.513l-.034.013c-.105-.16-.217-.317-.318-.48-.082-.027-.164-.054-.245-.083.014 2.63.002 5.258.006 7.887h-1.948c-.003-3.761.007-7.524-.006-11.287zm45.14-.01c2.797.025 5.593.012 8.389.007-.02.587-.005 1.173-.011 1.76h-6.412c.003.985.003 1.97 0 2.954 1.9 0 3.799 0 5.697.002.003.585-.008 1.17.01 1.758-1.906-.02-3.811.013-5.717-.016.018 1.03.02 2.06.002 3.089 2.174-.012 4.347 0 6.52-.006-.005.582-.002 1.165-.002 1.749-2.822.004-5.643-.007-8.464.006-.004-3.767.017-7.536-.01-11.303zm-68.395.01c1.723.004 3.447 0 5.17 0 .512.004 1.021.076 1.514.214.215.074.428.157.625.274.04-.005.116-.016.155-.02l.02.154.177-.02c.402.3.782.637 1.07 1.05.03.06.085.178.113.238.295.593.43 1.254.39 1.915-.04.662-.253 1.301-.617 1.855-.217.26-.46.5-.727.71-.416.258-.856.484-1.332.614.103.216.237.416.374.613.209.27.408.547.6.83.204.273.404.55.596.83.204.276.405.55.598.833.199.276.4.55.589.834.092.122.185.243.28.363-.77 0-1.54-.002-2.307.002-.106-.14-.209-.282-.308-.427-.084-.112-.167-.225-.25-.338-.085-.13-.166-.262-.244-.396h-.037c-.181-.266-.362-.533-.557-.79-.085-.131-.166-.264-.243-.4l-.033.005c-.103-.148-.21-.294-.313-.442-.085-.13-.17-.26-.247-.39l-.043-.003c-.096-.153-.196-.303-.29-.458-.113-.115-.188-.33-.382-.305-.794-.005-1.589-.004-2.383.002-.02 1.313.019 2.63-.022 3.942-.644-.004-1.288 0-1.93-.002-.004-3.761.007-7.524-.006-11.287zm1.955 1.782c-.004 1.277 0 2.555 0 3.833 1.067-.008 2.135.023 3.203-.015.548-.005 1.042-.252 1.51-.51l-.052-.064.14-.027.027-.14.068.052c.532-.768.56-1.881-.114-2.575-.128-.094-.254-.192-.377-.293l-.158.05.005-.126c-.38-.08-.757-.197-1.15-.188-1.034 0-2.068-.002-3.102.003zm13.045-1.785c.66.01 1.322.003 1.982.006-.005 3.76 0 7.523-.002 11.284-.658 0-1.316-.002-1.972.002-.003-3.763.012-7.528-.008-11.292zm40.336.003c.66.003 1.32.003 1.982 0-.014 3.172 0 6.344-.007 9.515 1.99-.014 3.98 0 5.97-.007-.012.593-.005 1.186-.006 1.779h-7.932c-.004-3.761.007-7.524-.006-11.287zm27.217.003c1.714-.002 3.427 0 5.14-.002 1.04-.004 2.09.27 2.94.882l-.025.042c.115.06.217.134.31.227.07.084.14.169.216.252.1.157.198.315.3.473.445.91.476 1.982.196 2.946-.105.227-.212.453-.32.679l-.041-.01c-.093.162-.21.307-.325.452l-.115.114c-.244.218-.502.422-.804.552l-.038.096c-.038-.003-.117-.005-.156-.008-.216.129-.453.22-.7.27.066.144.135.284.205.428h.052c.179.267.369.528.552.793.204.273.405.55.597.832.202.273.404.549.596.832.203.273.402.55.599.83.143.196.282.395.41.602-.761-.003-1.523.015-2.284-.006-.145-.171-.269-.359-.37-.56l-.033.009c-.103-.15-.206-.297-.305-.446-.084-.117-.166-.235-.247-.355-.204-.273-.4-.55-.59-.834l-.307-.408c-.067-.116-.129-.235-.187-.356l-.093.058.025-.116c-.099-.118-.194-.238-.287-.36-.125-.183-.25-.365-.366-.554-.856-.03-1.715-.007-2.57-.013-.003 1.315-.003 2.63 0 3.945-.658-.004-1.315 0-1.972-.002-.003-3.761.002-7.523-.003-11.284zm1.97 1.775c.003 1.28.006 2.56 0 3.842.977-.011 1.955.004 2.934-.007.505-.004 1.02-.1 1.46-.357.038 0 .113.004.15.007l-.001-.08c.156-.133.307-.274.453-.42.34-.515.332-1.152.238-1.74-.091-.165-.177-.333-.258-.504l-.103.02.033-.093-.17-.171-.094.036.024-.105c-.427-.22-.875-.424-1.366-.417-1.1-.023-2.2-.001-3.3-.01z"/><path d="m17.275 13.845c1.236.022 2.47.08 3.704.159 1.398.114 2.833.518 3.927 1.434.582.484 1.026 1.29.736 2.055-.356.882-1.287 1.34-2.146 1.592-1.784.54-3.647.123-5.464.04-2.88-.201-5.778-.238-8.658 0-.887.084-1.778.144-2.66.28-.155.017-1.503.245-2.065.36-.956.206-1.908.476-2.787.914-.528.278-1.076.638-1.313 1.214l-.047.152c-.1.845.668 1.489 1.296 1.952 1.16.792 2.485 1.29 3.792 1.784l.194.086c-.071.334-.125.671-.163 1.01-1.04-.537-2.063-1.124-2.975-1.864-.908-.703-1.766-1.555-2.247-2.607l-.01.03-.137-.316c-.186-.471-.27-.976-.248-1.481.022-.506.15-1.001.376-1.454.427-.855 1.13-1.536 1.896-2.088.132-.092.465-.331.465-.331 2.638-1.563 5.678-2.268 8.688-2.646 1.235-.114 2.47-.23 3.71-.273-1.24.043-2.475.158-3.71.27 2.328-.32 4.686-.34 7.03-.308.839.087 1.683.092 2.52.194-1.233-.081-2.468-.134-3.704-.158z"/><path d="m38.712 15.426c-.284 2.97-1.967 5.622-4.045 7.692-3.02 2.983-6.85 5.023-10.82 6.453-3.65 1.306-7.482 2.082-11.344 2.41-1.912.126-3.94-.38-5.39-1.675-.966-.851-1.593-2.127-1.492-3.428.032-.34.098-.676.163-1.011l-.194-.086.206.043c.434-1.105 1.197-2.05 2.186-2.708.247-.18.485-.298.622-.4.78-.373 1.598-.68 2.455-.82.162-.03.327-.05.492-.07 4.983-.437 9.95-1.281 14.73-2.773 2.48-.786 4.924-1.74 7.16-3.078 1.378-.848 2.737-1.847 3.6-3.243.635-1.011.776-2.32.236-3.414 1.087 1.827 1.665 3.982 1.435 6.108zm-28.812-15.25c5.77-.482 11.687-.016 17.178 1.896 2.334.814 4.577 1.92 6.562 3.4 1.191.899 2.258 1.951 3.175 3.128-1.911-1.925-4.538-2.846-7.106-3.522-4.403-1.096-8.966-1.402-13.492-1.361-2.043.017-4.085.118-6.12.305-.657.03-1.342-.212-1.785-.706-.218-.229-.367-.513-.433-.822-.065-.308-.044-.629.062-.926.283-.814 1.119-1.331 1.959-1.39z"/><path d="m5.583 6.166c2.996-1.147 6.24-1.438 9.426-1.455 4.266.045 8.512.685 12.638 1.746 1.16.31 2.357.574 3.4 1.192 1.12.65 2.16 1.61 2.534 2.883.259.874.04 1.82-.577 2.492-.67.72-1.634 1.087-2.59 1.232-1.04.141-2.099.069-3.11-.214-5.03-1.435-10.166-2.55-15.381-3.038-2.318-.194-4.66-.29-6.972.005-1.174.173-2.393.413-3.381 1.105-.643.435-1.012 1.235-.848 2.016-.464-1.493-.408-3.19.403-4.553.97-1.668 2.7-2.724 4.458-3.411"/></g></svg>
